X:51
T:Mortland's Reel
C:R. Petrie
S:Petrie's Second Collection of Strathspey Reels and Country Dances &c.
Z:Steve Wyrick , 6/11/04
N:Petrie's Second Collection, page 18
L:1/8
M:C|
R:Reel
K:Gm
D|G3A  BcdB|A2Af AFcF   |G3A  Bcdf|f(dTcA) G/G/GG  :|
d|gdfd gbag|fcfc fagf   |gdgd gbag|f(dTcA) G/G/G G^f|
  gdgd gbag|fcfc f(aTgf)|dfga gfga|f(dTcA) G/G/GG  |]
